X:1
T:Her Beauty Haunts Me Yet
T:Her Beauty Haunts Me Yet
T:Music by James Gill
T:Words by Mrs. M.B. Clark
T:1878
T:1878
T:1878
C:Music by James Gill
Z:Words by Mrs. M.B. Clark
Z:1878
%%score ( 1 2 ) { 3 | 4 }
L:1/8
Q:1/4=92
M:4/4
K:Ab
V:1 treble nm="Voice"
V:2 treble 
V:3 treble nm="Piano"
V:4 bass 
V:1
"^Andante." z8 | z8 | z8 | z8 || E3 E =D x A x | B4- (B2 A2) | G3 F E x e x | c4- c2 z2 | %8
w: ||||I have wan far|wide, _ _|With a heart light|free, _|
w: ||||Fair she is but|cheek _ _|Like the deep na|glows, _|
 E3 E =D x A x | B4- B2 z2 | c3 e d x A x | E4 z4 | F3 G A x B x | G6 z2 | c3 d c x G x | %15
w: Car- ing not might|tide, _|There was none care|me.|Love could ne'er heart|guile,|Beau- ty all moved|
w: And her liq- eyes|speak, _|What her lips not|close.|Lithe and grace- as|spray,|Of the haw when|
 (F4 _F4) | E3 E A x f x | =d2 z2 _d2 c2 | c x z d !fermata![fg] x F x | A4 x2 z2 || z8 | z8 | z8 | %23
w: met, _|But this for- maid-|smile, And her|beau- her beau- haunts|yet.||||
w: wet, _|With the glist'- dew|May, Oh! her|beau- her beau- haunts|yet.||||
 z8 |] %24
w: |
w: |
V:2
 x8 | x8 | x8 | x8 || x5 E x c | x8 | x5 f x d | x8 | x5 E x c | x8 | x5 c x F | x8 | x5 G x A | %13
w: ||||dered and||as as||what be-||to for||my be-|
w: ||||not her||car tion||uid oft||will dis-||ful a|
 x8 | x5 B x A | x8 | x5 c x e | x8 | x B x2 z [df] x !fermata!G | x8 || x8 | x8 | x8 | x8 |] %24
w: |un- I||est en's||ty, ty- me||||||
w: |thorn tis||ning of||ty, ty me||||||
V:3
 (E=DFE) (AGAc) | (B=ABd) (fdBF) | (AGgf) (GFdc) | =DE[_DEc][DEB] [CEA]4 || z (CEc) z (CEc) | %5
 z (DGB) z (DEB) | z (DGB) z (DEB) | z (CEA) (ecAE) | z (CEc) z (CEc) | z (=DAB) z (EGB) | %10
 z (EFc) z (=DFA) | z (B,EG) z (B,FB) | z (B,FB) z (CFA) | z (C=EG) z (CGc) | z (CFA) z (B,=EG) | %15
 z (B,DF) z (B,D_F) | z CEc z EAc | !fermata![FA=B=d]2 z2 [EG_d]2 [EAc]2 | %18
 [FAB]2 z2 [FAd] !fermata!z2 !fermata![DEG] | z CEc [CEc]4 || (E=DFE) (cGAc) | B=ABd fdBF | %22
 AGgf GFdc | =DE[_DEc][DEB] [CEA]4 |] %24
V:4
 (A,,E,A,C) (C,E,A,C) | (B,,F,A,B,) (B,,F,B,D) | [E,G,B,D]2 z2 z4 | z2 [E,,B,,E,]2 (A,,E, A,2) || %4
 (A,,4 A,4) | (D,4 B,,4) | (E,4 G,4) | (F,4 C4) | (B,4 B,,4) | (F,4 G,4) | (A,4 B,4) | (E,4 =D,4) | %12
 (D,4 F,4) | (C,4 =E,4) | (F,4 C,4) | (F,4 G,4) | (A,4 A,,4) | [F,,F,]2 z2 [_B,,,_B,,]2 [C,,C,]2 | %18
 [D,,D,]2 z2 [B,,,B,,] !fermata!z2 !fermata![E,,E,] | [A,,A,]4- [A,,A,]4 || (A,,E,A,C) (C,E,A,C) | %21
 (D,F,A,B,) (B,,F,B,D) | [E,G,B,D]2 z2 z4 | z2 [E,,B,,E,]2 A,,-E,- [A,,E,A,]2 |] %24

